img/card2.svg

<svg class="ui-homes-icon ui-homes-icon--da-location font-color--HOME-DA-LOCATION" width="100%" height="100%" viewBox="0 0 100 100" fill="none" xmlns="http://www.w3.org/2000/svg"><circle cx="53" cy="53" r="45.5403" fill="#EEEEEE"></circle><rect x="8.375" y="31.4545" width="89.3111" height="58.5904" rx="4.59375" fill="white" stroke="white" stroke-width="3.9375"></rect><path d="M99.6548 68.0938V36.0483C99.6548 32.4239 96.7167 29.4858 93.0923 29.4858H12.9687C9.34438 29.4858 6.40625 32.4239 6.40625 36.0483V85.4511C6.40625 89.0755 9.34438 92.0136 12.9688 92.0136H93.0775C96.7076 92.0136 99.6481 89.0665 99.6399 85.4363L99.6319 81.8751M99.6777 72.6876L99.6548 77.2813" stroke="#333333" stroke-width="1.96875"></path><line x1="6.20737" y1="76.975" x2="99.4559" y2="57.7386" stroke="#333333" stroke-width="1.96875"></line><line x1="7.08424" y1="38.5191" x2="40.1511" y2="69.9326" stroke="#333333" stroke-width="1.96875"></line><line x1="72.618" y1="63.4771" x2="84.6874" y2="91.6252" stroke="#333333" stroke-width="1.96875"></line><line x1="83.0352" y1="29.8711" x2="67.9898" y2="65.2455" stroke="#333333" stroke-width="1.96875"></line><path d="M33.6532 27.5519C33.6532 17.0745 42.2666 8.51825 52.8966 8.51825C63.5266 8.51825 72.14 17.0745 72.14 27.5519C72.14 29.8966 71.091 32.9755 69.2661 36.4604C67.4694 39.8915 65.0425 43.4914 62.5545 46.8142C58.6049 52.0893 54.5846 56.5568 52.8966 58.3829C51.2087 56.5568 47.1883 52.0893 43.2387 46.8142C40.7508 43.4914 38.3238 39.8915 36.5271 36.4604C34.7022 32.9755 33.6532 29.8966 33.6532 27.5519Z" fill="#FFE600" stroke="white" stroke-width="3.9375"></path><ellipse cx="53.0305" cy="25.6425" rx="8.57057" ry="8.48581" fill="white" stroke="#333333" stroke-width="1.96875"></ellipse><path d="M34.7087 16.7512C32.7892 19.9087 31.6844 23.6047 31.6844 27.5519C31.6844 38.8889 51.431 59.7131 52.271 60.5956C52.4338 60.7653 52.6652 60.8587 52.8966 60.8587C53.128 60.8587 53.3594 60.7653 53.5223 60.5956C54.3622 59.7131 74.1088 38.8889 74.1088 27.5519C74.1088 15.9687 64.5954 6.5495 52.8966 6.5495C47.091 6.5495 41.8236 8.86919 37.99 12.6219" stroke="#333333" stroke-width="1.96875"></path></svg>

<svg viewBox="0 0 105 105" fill="none" xmlns="http://www.w3.org/2000/svg"><circle cx="53" cy="53" r="45.54" fill="#EEE"/><rect x="8.375" y="31.454" width="89.311" height="58.59" rx="4.594" fill="#fff" stroke="#fff" stroke-width="3.938"/><path d="M99.655 68.094V36.048a6.562 6.562 0 0 0-6.563-6.562H12.97a6.562 6.562 0 0 0-6.563 6.562v49.403a6.562 6.562 0 0 0 6.563 6.563h80.108a6.563 6.563 0 0 0 6.563-6.578l-.008-3.56m.046-9.188-.023 4.593m-93.449-.306 93.249-19.236M7.084 38.519l33.067 31.414m32.467-6.456 12.069 28.148m-1.652-61.754L67.99 65.246" stroke="#333" stroke-width="1.969"/><path d="M33.653 27.552c0-10.477 8.614-19.034 19.244-19.034 10.63 0 19.243 8.556 19.243 19.034 0 2.345-1.049 5.423-2.874 8.908-1.797 3.431-4.224 7.031-6.712 10.354-3.95 5.275-7.97 9.743-9.657 11.569-1.688-1.826-5.709-6.294-9.658-11.569-2.488-3.323-4.915-6.922-6.712-10.354-1.825-3.485-2.874-6.563-2.874-8.908Z" fill="#FFE600" stroke="#fff" stroke-width="3.938"/><ellipse cx="53.031" cy="25.642" rx="8.571" ry="8.486" fill="#fff" stroke="#333" stroke-width="1.969"/><path d="M34.709 16.751a20.724 20.724 0 0 0-3.025 10.8c0 11.338 19.747 32.162 20.587 33.045a.873.873 0 0 0 1.251 0c.84-.883 20.587-21.707 20.587-33.044 0-11.583-9.514-21.002-21.212-21.002a21.252 21.252 0 0 0-14.907 6.072" stroke="#333" stroke-width="1.969"/></svg>
